; generated by PrusaSlicer 2.8.0+MacOS-arm64 on 2024-08-16 at 05:36:19 UTC


;
;
; 

; external perimeters extrusion width = 0.45mm
; perimeters extrusion width = 0.45mm
; infill extrusion width = 0.45mm
; solid infill extrusion width = 0.45mm
; top infill extrusion width = 0.40mm
; first layer extrusion width = 0.42mm

; external perimeters extrusion width = 0.45mm
; perimeters extrusion width = 0.45mm
; infill extrusion width = 0.45mm
; solid infill extrusion width = 0.45mm
; top infill extrusion width = 0.40mm
; first layer extrusion width = 0.42mm

; external perimeters extrusion width = 0.45mm
; perimeters extrusion width = 0.45mm
; infill extrusion width = 0.45mm
; solid infill extrusion width = 0.45mm
; top infill extrusion width = 0.40mm
; first layer extrusion width = 0.42mm

M73 P0 R18
M73 Q0 S19
M201 X1000 Y1000 Z200 E5000 ; sets maximum accelerations, mm/sec^2
M203 X200 Y200 Z12 E120 ; sets maximum feedrates, mm / sec
M204 S1250 T1250 ; sets acceleration (S) and retract acceleration (R), mm/sec^2
M205 X8.00 Y8.00 Z0.40 E4.50 ; sets the jerk limits, mm/sec
M205 S0 T0 ; sets the minimum extruding and travel feed rate, mm/sec

; printing object Hook_Loadcell-2 id:2 copy 0
; stop printing object Hook_Loadcell-2 id:2 copy 0
; printing object body4206403 id:0 copy 0
; stop printing object body4206403 id:0 copy 0
; printing object body2871799 id:1 copy 0
; stop printing object body2871799 id:1 copy 0

;TYPE:Custom
M862.3 P "MK3S" ; printer model check
M862.1 P0.4 ; nozzle diameter check
M115 U3.13.3 ; tell printer latest fw version
G90 ; use absolute coordinates
M83 ; extruder relative mode
M104 S215 ; set extruder temp
M140 S60 ; set bed temp
M190 S60 ; wait for bed temp
M109 S215 ; wait for extruder temp
G28 W ; home all without mesh bed level
G80 X78.1966 Y93.2307 W56.7503 H56.1383 ; mesh bed levelling

G1 Z0.2 F720
G1 Y-3 F1000 ; go outside print area
G92 E0
G1 X60 E9 F1000 ; intro line
G1 X100 E12.5 F1000 ; intro line

G92 E0
M221 S95

; Don't change E values below. Excessive value can damage the printer.
M907 E430 ; set extruder motor current
G21 ; set units to millimeters
G90 ; use absolute coordinates
M83 ; use relative distances for extrusion
M900 K0.03
M107
;LAYER_CHANGE
;Z:0.2
;HEIGHT:0.2
G1 E-1.4 F1800
G1 Z.6 F720
G1 X78.816 Y101.615 F10800
G1 Z.2 F720
G1 E1.4 F1800
M204 S800
;TYPE:Skirt/Brim
;WIDTH:0.42
G1 F1200
G1 X80.225 Y100.752 E.05181
G1 X124.367 Y93.534 E1.40242
G1 X125.927 Y93.42 E.04904
M73 Q0 S18
G1 X127.74 Y93.631 E.05723
G1 X129.465 Y94.197 E.05692
G1 X131.012 Y95.075 E.05577
G1 X132.394 Y96.276 E.05741
G1 X133.431 Y97.604 E.05283
G1 X134.235 Y99.308 E.05908
G1 X134.673 Y101.121 E.05848
G1 X134.756 Y102.147 E.03227
G1 X134.722 Y102.771 E.01959
G1 X127.498 Y141.793 E1.2443
G1 X127.074 Y143.291 E.04881
M73 P1 R18
M73 Q1 S18
G1 X126.427 Y144.65 E.04719
G1 X125.565 Y145.884 E.0472
G1 X124.512 Y146.959 E.04718
G1 X123.133 Y147.944 E.05313
G1 X121.774 Y148.591 E.04719
G1 X120.267 Y149.017 E.0491
G1 X118.58 Y149.18 E.05314
G1 X117.08 Y149.061 E.04718
G1 X115.619 Y148.696 E.04722
G1 X114.239 Y148.096 E.04718
G1 X112.976 Y147.277 E.0472
G1 X111.825 Y146.217 E.04906
G1 X80.471 Y108.973 E1.52647
G1 X79.526 Y107.588 E.05257
G1 X78.855 Y106.063 E.05224
G1 X78.476 Y104.457 E.05174
G1 X78.391 Y102.851 E.05043
G1 X78.797 Y101.671 E.03913
M204 S1000
;WIPE_START
G1 F8640
G1 X78.816 Y101.615 E-.0117
G1 X80.225 Y100.752 E-.32701
G1 X85.517 Y99.887 E-1.06129
;WIPE_END
G1 Z.6 F720
; printing object body4206403 id:0 copy 0
G1 X121.327 Y141.994 F10800
G1 Z.2 F720
G1 E1.4 F1800
M204 S800
;TYPE:External perimeter
;WIDTH:0.419999
G1 F1200
G1 X121.314 Y141.99 E.00043
G1 X120.924 Y141.788 E.01377
G1 X120.642 Y141.57 E.01118
G1 X120.378 Y141.27 E.01253
G1 X120.125 Y140.782 E.01723
G1 X120.037 Y140.5 E.00926
G1 X119.991 Y140.106 E.01244
G1 X120.022 Y139.71 E.01245
G1 X120.128 Y139.328 E.01243
G1 X120.305 Y138.973 E.01244
G1 X120.547 Y138.659 E.01243
G1 X120.994 Y138.308 E.01782
G1 X121.317 Y138.153 E.01123
G1 X121.672 Y138.047 E.01162
G1 X122.011 Y138.008 E.0107
G1 X122.407 Y138.039 E.01245
G1 X122.791 Y138.146 E.0125
G1 X123.191 Y138.353 E.01412
G1 X123.499 Y138.604 E.01246
G1 X123.752 Y138.908 E.0124
;WIDTH:0.468498
G1 X123.876 Y139.131 E.00903
;WIDTH:0.516996
G1 X124 Y139.354 E.01006
;WIDTH:0.565494
G1 X124.124 Y139.576 E.01105
G1 X124.161 Y140.211 E.02764
;WIDTH:0.576074
G1 X124.104 Y140.63 E.01875
G1 X124.012 Y140.891 E.01227
;WIDTH:0.557777
G1 X123.854 Y141.091 E.01091
;WIDTH:0.511851
G1 X123.696 Y141.29 E.00991
;WIDTH:0.465925
G1 X123.539 Y141.49 E.00894
;WIDTH:0.419999
G1 X123.208 Y141.77 E.01359
G1 X122.86 Y141.96 E.01243
G1 X122.482 Y142.08 E.01243
G1 X122.088 Y142.126 E.01244
G1 X121.693 Y142.095 E.01242
G1 X121.384 Y142.01 E.01005
M204 S1000
;WIPE_START
G1 F8640
G1 X121.327 Y141.994 E-.01172
G1 X121.314 Y141.99 E-.00269
G1 X120.924 Y141.788 E-.08693
G1 X120.642 Y141.57 E-.07055
G1 X120.378 Y141.27 E-.07909
G1 X120.125 Y140.782 E-.10879
G1 X120.037 Y140.5 E-.05847
G1 X119.991 Y140.106 E-.07851
G1 X120.022 Y139.71 E-.07861
G1 X120.128 Y139.328 E-.07846
G1 X120.305 Y138.973 E-.07851
G1 X120.547 Y138.659 E-.07846
G1 X120.994 Y138.308 E-.11248
G1 X121.317 Y138.153 E-.07091
G1 X121.672 Y138.047 E-.07333
G1 X122.011 Y138.008 E-.06754
G1 X122.407 Y138.039 E-.07861
G1 X122.791 Y138.146 E-.0789
G1 X123.191 Y138.353 E-.08914
G1 X123.263 Y138.411 E-.0183
;WIPE_END
G1 Z.6 F720
G1 X116.067 Y141.84 F10800
G1 Z.2 F720
G1 E1.4 F1800
M204 S800
G1 F1200
G1 X115.807 Y141.978 E.00923
G1 X115.288 Y142.105 E.01675
G1 X114.729 Y142.101 E.01753
G1 X114.258 Y141.968 E.01535
G1 X113.908 Y141.781 E.01244
G1 X113.601 Y141.53 E.01243
G1 X113.347 Y141.226 E.01242
;WIDTH:0.465147
G1 X113.225 Y141.003 E.00892
;WIDTH:0.510295
G1 X113.103 Y140.78 E.00988
;WIDTH:0.555443
G1 X112.98 Y140.557 E.01085
G1 X112.929 Y140.101 E.01955
;WIDTH:0.57626
G1 X112.998 Y139.497 E.02696
G1 X113.077 Y139.299 E.00945
;WIDTH:0.537529
G1 X113.163 Y139.175 E.00621
;WIDTH:0.498353
G1 X113.249 Y139.05 E.00575
;WIDTH:0.459176
G1 X113.336 Y138.926 E.00524
;WIDTH:0.419999
G1 X113.587 Y138.618 E.01246
G1 X113.891 Y138.365 E.0124
G1 X114.239 Y138.174 E.01245
G1 X114.617 Y138.054 E.01243
G1 X115.109 Y138.015 E.01547
G1 X115.407 Y138.039 E.00937
G1 X115.795 Y138.148 E.01264
G1 X116.144 Y138.322 E.01223
G1 X116.46 Y138.566 E.01252
G1 X116.752 Y138.909 E.01412
G1 X116.943 Y139.256 E.01242
G1 X117.062 Y139.631 E.01234
G1 X117.099 Y140.148 E.01625
G1 X117.039 Y140.577 E.01358
G1 X116.887 Y140.981 E.01353
G1 X116.606 Y141.406 E.01597
G1 X116.238 Y141.749 E.01577
G1 X116.12 Y141.812 E.00419
M204 S1000
;WIPE_START
G1 F8640
G1 X116.067 Y141.84 E-.01186
G1 X115.807 Y141.978 E-.05826
G1 X115.288 Y142.105 E-.10575
G1 X114.729 Y142.101 E-.11064
G1 X114.258 Y141.968 E-.09686
G1 X113.908 Y141.781 E-.07854
G1 X113.601 Y141.53 E-.07848
G1 X113.347 Y141.226 E-.0784
G1 X113.225 Y141.003 E-.05031
G1 X113.103 Y140.78 E-.05031
G1 X112.98 Y140.557 E-.0504
G1 X112.929 Y140.101 E-.09081
G1 X112.998 Y139.497 E-.12032
G1 X113.077 Y139.299 E-.04219
G1 X113.163 Y139.175 E-.02987
G1 X113.249 Y139.05 E-.03003
G1 X113.336 Y138.926 E-.02998
G1 X113.587 Y138.618 E-.07864
G1 X113.891 Y138.365 E-.07828
G1 X114.239 Y138.174 E-.07857
G1 X114.487 Y138.095 E-.0515
;WIPE_END
G1 Z.6 F720
G1 X124.094 Y138.344 F10800
G1 Z.2 F720
G1 E1.4 F1800
M204 S800
;TYPE:Perimeter
G1 F1200
G1 X124.143 Y138.486 E.00471
G1 X124.261 Y139.037 E.01767
G1 X124.081 Y138.724 E.01132
G1 X123.787 Y138.36 E.01467
G1 X123.427 Y138.059 E.01471
G1 X122.962 Y137.81 E.01654
G1 X122.504 Y137.675 E.01497
G1 X122.037 Y137.632 E.0147
G1 X121.57 Y137.68 E.01472
G1 X121.068 Y137.839 E.01651
G1 X120.649 Y138.075 E.01508
G1 X120.295 Y138.378 E.01461
G1 X120.004 Y138.746 E.01471
G1 X119.789 Y139.162 E.01468
G1 X119.657 Y139.613 E.01473
G1 X119.615 Y140.08 E.0147
G1 X119.647 Y140.427 E.01093
G1 X119.799 Y140.995 E.01844
G1 X120.052 Y141.458 E.01654
G1 X120.361 Y141.821 E.01495
G1 X120.697 Y142.089 E.01348
G1 X121.149 Y142.329 E.01605
G1 X121.596 Y142.46 E.0146
G1 X122.063 Y142.502 E.0147
G1 X122.529 Y142.455 E.01469
G1 X122.978 Y142.319 E.01471
G1 X123.392 Y142.099 E.0147
G1 X123.757 Y141.804 E.01471
G1 X124.058 Y141.444 E.01471
;WIDTH:0.422401
G1 X124.259 Y141.092 E.01279
G1 X124.217 Y141.34 E.00794
G1 X124.077 Y141.851 E.01672
;WIDTH:0.419999
G1 X123.874 Y142.399 E.01832
G1 X123.596 Y142.949 E.01932
G1 X123.328 Y143.376 E.01581
G1 X122.933 Y143.884 E.02018
G1 X122.526 Y144.303 E.01832
G1 X122.123 Y144.651 E.01669
G1 X121.59 Y145.021 E.02034
G1 X121.089 Y145.29 E.01783
G1 X120.491 Y145.54 E.02032
G1 X119.885 Y145.721 E.01983
G1 X119.363 Y145.816 E.01664
G1 X118.489 Y145.876 E.02747
G1 X117.915 Y145.845 E.01802
G1 X117.279 Y145.738 E.02022
G1 X116.754 Y145.59 E.0171
G1 X116.218 Y145.391 E.01793
G1 X115.648 Y145.103 E.02002
G1 X115.189 Y144.805 E.01716
G1 X114.688 Y144.407 E.02006
G1 X114.249 Y143.974 E.01933
G1 X113.856 Y143.482 E.01974
G1 X113.488 Y142.914 E.02122
G1 X113.24 Y142.408 E.01767
G1 X113.049 Y141.92 E.01643
G1 X112.831 Y141.103 E.02651
G1 X113.018 Y141.41 E.01127
G1 X113.313 Y141.774 E.01469
G1 X113.673 Y142.075 E.01471
G1 X114.083 Y142.302 E.01469
G1 X114.588 Y142.457 E.01656
G1 X114.995 Y142.498 E.01283
G1 X115.529 Y142.455 E.0168
G1 X115.925 Y142.336 E.01296
G1 X116.346 Y142.125 E.01477
G1 X116.71 Y141.844 E.01442
G1 X117.058 Y141.444 E.01662
G1 X117.221 Y141.156 E.01038
G1 X117.429 Y140.587 E.019
G1 X117.484 Y140.062 E.01655
G1 X117.437 Y139.584 E.01506
G1 X117.301 Y139.139 E.01459
G1 X117.082 Y138.725 E.01468
G1 X116.744 Y138.319 E.01656
G1 X116.371 Y138.022 E.01495
G1 X115.96 Y137.809 E.01451
G1 X115.504 Y137.675 E.0149
G1 X115.135 Y137.639 E.01162
G1 X114.571 Y137.68 E.01773
G1 X114.122 Y137.816 E.01471
G1 X113.707 Y138.035 E.01471
G1 X113.343 Y138.33 E.01469
G1 X113.041 Y138.69 E.01473
G1 X112.831 Y139.078 E.01383
G1 X112.879 Y138.796 E.00897
G1 X113.023 Y138.283 E.01671
G1 X113.201 Y137.8 E.01614
G1 X113.444 Y137.305 E.01729
G1 X113.76 Y136.777 E.01929
G1 X114.061 Y136.375 E.01575
G1 X114.497 Y135.901 E.02019
G1 X114.938 Y135.517 E.01833
G1 X115.368 Y135.204 E.01668
G1 X115.861 Y134.919 E.01785
G1 X116.359 Y134.684 E.01727
G1 X116.873 Y134.507 E.01704
G1 X117.432 Y134.363 E.0181
G1 X118.07 Y134.275 E.02019
G1 X118.591 Y134.26 E.01634
G1 X119.186 Y134.29 E.01868
G1 X119.821 Y134.396 E.02019
G1 X120.345 Y134.544 E.01707
G1 X120.881 Y134.743 E.01793
G1 X121.387 Y134.998 E.01777
G1 X121.814 Y135.261 E.01572
M73 P2 R18
G1 X122.242 Y135.578 E.0167
G1 X122.716 Y136.014 E.02019
G1 X123.116 Y136.474 E.01911
G1 X123.413 Y136.885 E.0159
G1 X123.729 Y137.431 E.01978
G1 X123.937 Y137.887 E.01571
M73 Q2 S18
G1 X124.075 Y138.288 E.0133
M204 S1000
G1 X124.075 Y138.288 F10800
G1 X124.448 Y138.228
M204 S800
;TYPE:External perimeter
G1 F1200
G1 X124.528 Y138.475 E.00814
G1 X124.639 Y138.985 E.01637
;WIDTH:0.467105
G1 X124.642 Y139.182 E.00695
;WIDTH:0.514211
G1 X124.645 Y139.379 E.00772
;WIDTH:0.561317
G1 X124.648 Y139.576 E.00849
G1 X124.649 Y139.587 E.00048
;WIDTH:0.560756
G1 X124.67 Y140.25 E.02856
;WIDTH:0.590148
G1 X124.576 Y141.102 E.039
;WIDTH:0.547611
G1 X124.574 Y141.232 E.00546
;WIDTH:0.505074
G1 X124.572 Y141.361 E.00496
;WIDTH:0.462537
G1 X124.57 Y141.491 E.00454
;WIDTH:0.419999
G1 X124.407 Y142.07 E.01886
G1 X124.219 Y142.552 E.01622
G1 X123.914 Y143.156 E.02122
G1 X123.637 Y143.593 E.01622
G1 X123.218 Y144.132 E.02141
G1 X122.747 Y144.616 E.02118
G1 X122.353 Y144.951 E.01622
G1 X121.79 Y145.341 E.02147
G1 X121.346 Y145.589 E.01595
G1 X120.72 Y145.864 E.02144
G1 X120.076 Y146.066 E.02116
G1 X119.57 Y146.172 E.01621
G1 X118.898 Y146.247 E.0212
G1 X118.379 Y146.255 E.01627
G1 X117.87 Y146.219 E.016
G1 X117.196 Y146.107 E.02142
G1 X116.547 Y145.924 E.02114
G1 X116.065 Y145.736 E.01622
G1 X115.461 Y145.431 E.02122
G1 X115.024 Y145.154 E.01622
G1 X114.485 Y144.735 E.02141
G1 X114.001 Y144.265 E.02115
G1 X113.666 Y143.87 E.01624
G1 X113.276 Y143.307 E.02147
G1 X113.028 Y142.863 E.01595
G1 X112.753 Y142.237 E.02144
G1 X112.581 Y141.689 E.01801
G1 X112.464 Y141.18 E.01638
;WIDTH:0.465147
G1 X112.465 Y141.009 E.006
;WIDTH:0.510295
G1 X112.466 Y140.839 E.00661
;WIDTH:0.555443
G1 X112.467 Y140.668 E.00729
;WIDTH:0.556791
G1 X112.438 Y140.39 E.01194
G1 X112.429 Y139.888 E.02145
;WIDTH:0.584018
G1 X112.508 Y139.098 E.03572
;WIDTH:0.543014
G1 X112.509 Y138.97 E.00532
;WIDTH:0.502009
G1 X112.509 Y138.842 E.00489
;WIDTH:0.461004
G1 X112.51 Y138.713 E.00448
;WIDTH:0.419999
G1 X112.693 Y138.064 E.02114
G1 X112.881 Y137.582 E.01622
G1 X113.186 Y136.979 E.02119
G1 X113.463 Y136.54 E.01628
G1 X113.771 Y136.133 E.016
G1 X114.234 Y135.631 E.02141
G1 X114.749 Y135.182 E.02142
G1 X115.163 Y134.886 E.01596
G1 X115.756 Y134.544 E.02146
G1 X116.219 Y134.333 E.01595
G1 X116.859 Y134.113 E.02122
G1 X117.362 Y133.992 E.01622
G1 X118.039 Y133.899 E.02143
G1 X118.713 Y133.88 E.02114
G1 X119.229 Y133.915 E.01622
G1 X119.903 Y134.027 E.02142
G1 X120.553 Y134.21 E.02117
G1 X121.035 Y134.398 E.01622
G1 X121.638 Y134.703 E.02119
G1 X122.135 Y135.024 E.01855
G1 X122.539 Y135.339 E.01606
G1 X123.08 Y135.859 E.02353
G1 X123.466 Y136.31 E.01861
G1 X123.79 Y136.783 E.01798
G1 X124.131 Y137.399 E.02208
G1 X124.359 Y137.954 E.01881
G1 X124.429 Y138.171 E.00715
M204 S1000
;WIPE_START
G1 F8640
G1 X124.448 Y138.228 E-.01189
G1 X124.528 Y138.475 E-.05139
G1 X124.639 Y138.985 E-.1033
G1 X124.642 Y139.182 E-.03899
G1 X124.645 Y139.379 E-.03899
G1 X124.648 Y139.576 E-.03899
G1 X124.649 Y139.587 E-.00219
G1 X124.67 Y140.25 E-.13128
G1 X124.576 Y141.102 E-.16965
G1 X124.574 Y141.232 E-.02573
G1 X124.572 Y141.361 E-.02553
G1 X124.57 Y141.491 E-.02573
G1 X124.407 Y142.07 E-.11905
G1 X124.219 Y142.552 E-.1024
G1 X123.914 Y143.156 E-.13392
G1 X123.637 Y143.593 E-.1024
G1 X123.218 Y144.132 E-.13512
G1 X122.747 Y144.616 E-.13366
G1 X122.709 Y144.648 E-.00979
;WIPE_END
G1 Z.6 F720
G1 X120.441 Y134.754 F10800
G1 Z.2 F720
G1 E1.4 F1800
M204 S800
;TYPE:Solid infill
;WIDTH:0.420147
G1 F1200
G1 X123.276 Y137.588 E.12574
G1 X122.947 Y137.442 E.01129
G1 X122.48 Y137.326 E.01509
G1 X119.934 Y134.78 E.11294
G1 X119.747 Y134.727 E.0061
G1 X119.268 Y134.648 E.01523
G1 X121.923 Y137.302 E.11775
G1 X121.45 Y137.363 E.01496
G1 X118.693 Y134.605 E.12232
G1 X118.166 Y134.613 E.01653
G1 X121.043 Y137.489 E.1276
G1 X120.792 Y137.594 E.00853
G1 X120.683 Y137.663 E.00405
G1 X117.69 Y134.67 E.13277
G1 X117.244 Y134.757 E.01425
G1 X120.357 Y137.871 E.13811
G1 X120.075 Y138.122 E.01184
G1 X116.833 Y134.88 E.14381
G1 X116.44 Y135.02 E.01309
G1 X119.834 Y138.415 E.15058
G1 X119.685 Y138.61 E.0077
G1 X119.623 Y138.737 E.00443
G1 X116.074 Y135.188 E.15743
G1 X115.736 Y135.383 E.01224
G1 X119.449 Y139.096 E.1647
G1 X119.335 Y139.515 E.01362
G1 X115.41 Y135.59 E.17411
G1 X115.106 Y135.821 E.01198
G1 X119.284 Y139.998 E.18531
G1 X119.273 Y140.138 E.0044
G1 X119.331 Y140.578 E.01392
G1 X114.821 Y136.069 E.20004
G1 X114.557 Y136.338 E.01182
G1 X115.571 Y137.352 E.04498
G1 X115.431 Y137.319 E.00451
G1 X114.986 Y137.3 E.01397
G1 X114.303 Y136.618 E.03028
G1 X114.073 Y136.921 E.01193
G1 X114.507 Y137.355 E.01925
G1 X114.377 Y137.374 E.00412
G1 X114.094 Y137.476 E.00944
G1 X113.864 Y137.246 E.0102
G1 X113.678 Y137.593 E.01235
G1 X113.849 Y137.764 E.00759
M204 S1000
;WIPE_START
G1 F8640
G1 X113.678 Y137.593 E-.04786
G1 X113.864 Y137.246 E-.07792
G1 X114.094 Y137.476 E-.06438
G1 X114.377 Y137.374 E-.05954
G1 X114.507 Y137.355 E-.026
G1 X114.073 Y136.921 E-.12148
G1 X114.303 Y136.618 E-.07529
G1 X114.986 Y137.3 E-.19103
G1 X115.431 Y137.319 E-.08815
G1 X115.571 Y137.352 E-.02847
G1 X114.557 Y136.338 E-.28381
G1 X114.821 Y136.069 E-.0746
G1 X115.755 Y137.003 E-.26147
;WIPE_END
G1 Z.6 F720
G1 X123.255 Y142.369 F10800
G1 Z.2 F720
G1 E1.4 F1800
M204 S800
G1 F1200
G1 X123.424 Y142.537 E.00747
G1 X123.237 Y142.885 E.01239
G1 X123.01 Y142.657 E.01009
G1 X122.728 Y142.758 E.0094
G1 X122.597 Y142.778 E.00416
G1 X123.028 Y143.209 E.01912
G1 X122.795 Y143.509 E.01191
G1 X122.12 Y142.834 E.02994
G1 X121.669 Y142.816 E.01416
G1 X121.536 Y142.784 E.00429
G1 X122.547 Y143.794 E.04482
G1 X122.284 Y144.065 E.01185
